X:15002
T:O Come, O Come Emmanuel
T:Veni Emmanuel
R:March
C:Trad. 15C
O:France
Z:Paul Hardy's Xmas Tunebook 2019 (see www.paulhardy.net). Creative Commons cc by-nc-sa licenced.
M:4/4
L:1/4
Q:1/4=120
K:Em
E |"Em"G B BB |"Am"A c "D"B A| "G"G3 A| "Em"B G EG |"D"A F ED|"Em" E3A|
"Am" A E EF |"C"G2 FE |"D"D3G|"Em" A B B B |"Am"A c "D"B A |"G"G3 d||
"D"d3 B|"B7"B3 "Em"B |"Am"A c "D"B A| "G"G3 A | "Em"B G E G |"Am"A F "D"E D |"Em"E3 |]
W:O come, O come, Emmanuel,
W:And ransom captive Israel,
W:That mourns in lonely exile here
W:Until the Son of God appear.
W:
W:Rejoice! Rejoice!
W:Emmanuel shall come to thee, O Israel.
W:
W:(Trans. John Neale of 12C Veni, veni, Emmanuel)

